X:1
T:Lady John Scott
T:Lady John Scott
T:William Marshall
C:William Marshall
%%score { ( 1 2 ) ( 3 4 ) }
L:1/8
M:4/4
K:A
V:1 treble 
V:2 treble 
V:3 bass 
V:4 bass 
V:1
 A<EA>c"^tr" B>AB<c | e<cB>A"^tr" BA F2 | A<EA>c B>AB<c | e<cB>c A/A/A A2 | A<EA>c B>AB<c | %5
 e<cB>A BA F2 | A<EA>c B>AB<c | e<cB>c A/A/A A2 || A/a/g/a/ f/e/d/c/ d/e/f/e/ d/c/B/A/ | %9
 B/c/d/c/ d/c/B/A/"^tr" B>A F2 | A/a/g/a/ f/e/d/c/ d/e/f/g/ ac | B>ABc A/A/A A2 || %12
 A/a/g/a/ f/e/d/c/ d/e/f/e/ d/c/B/A/ | B/c/d/c/ d/c/B/A/"^tr" B>A F2 | A<EA>c B>AB<c | %15
 e<cB>c A/A/A A2 |] %16
V:2
 C2 C2 D2 D2 | E2 x6 | C2 C2 D2 D2 | E2 D2 C/C/C C2 | C2 C2 D2 D2 | E2 x6 | C2 C2 D2 D2 | %7
 E2 D2 C/C/C C2 || x8 | x8 | x8 | x8 || x8 | x8 | C2 C2 D2 D2 | E2 x4 C2 |] %16
V:3
 [A,,E,A,]2 [A,,E,A,]2 [A,,E,G,]2 [A,,E,G,]2 | [A,,E,A,]2 [A,,E,A,]2 [A,,E,A,]2 [A,,E,A,]2 | %2
 [A,,E,A,]2 [A,,E,A,]2 [A,,E,G,]2 [A,,E,G,]2 | [A,,E,A,]2 [E,B,]2 [A,,A,]2 [A,,A,]2 | %4
 [A,,E,A,]2 [A,,E,A,]2 [A,,E,G,]2 [A,,E,G,]2 | [A,,E,A,]2 [A,,E,A,]2 [A,,E,A,]2 [A,,E,A,]2 | %6
 [A,,E,A,]2 [A,,E,A,]2 [A,,E,G,]2 [A,,E,G,]2 | [A,,E,A,]2 [E,B,]2 [A,,A,]2 [A,,A,]2 || %8
 [A,CE]2 [A,CE]2 [A,DF]2 [A,DF]2 | E2 x E D2 D2 | [A,CE]2 [A,CE]2 FD CE | %11
 [A,DE]2 [A,DE]2 [A,CE]2 [A,CE]2 || [A,CE]2 [A,CE]2 [A,DF]2 [A,DF]2 | E2 x E D2 D2 | %14
 [A,,E,A,]2 [A,,E,A,]2 [A,,E,G,]2 [A,,E,G,]2 | [A,,E,A,]2 [E,B,D]2 [A,CE]2 [A,,A,]2 |] %16
V:4
 x8 | x8 | x8 | x8 | x8 | x8 | x8 | x8 || x8 | G,A, B,C A,2 A,2 | x4 A,2 A,2 | x8 || x8 | %13
 G,A, B,C A,2 A,2 | x8 | x8 |] %16

